X: 625
T:McMahon's Hornpipe
T:Trip to Vermont, The
M:C
L:1/8
S:from Mike Rafferty
R:Hornpipe
N:Posted to the woodenflute mailing list January 2003
Z:Tom Madden
K:G
(3GFE | DGBG cABG | DGBd gzga | bg~g2 dedB | cBAG (3FED BG |
DGBG cABG | DGBd gzga | bg~g2 dedB | cAFA G2 :|
ga | bg~g2 agef | gzgd edBd | eBB2 egfd | edcB AGEG |
DGBG cABG | DGBd gzga | bg~g2 dedB | cAFA G2 :|
<end>
<start>
